X:1
T:Beall, 77.77.77
T:Beall, 77.77.77
T:Composer unknown, before 1864
T:Public Domain Courtesy of the Cyber Hymnal™
C:Composer unknown, before 1864
Z:Public Domain
Z:Courtesy of the Cyber Hymnal™
%%score ( 1 2 ) ( 3 4 )
L:1/8
Q:1/4=110
M:4/4
K:G
V:1 treble 
V:2 treble 
V:3 bass 
V:4 bass 
V:1
 [B,E]2 (EF) [EG]2 [DG]2 | [EA]2 [DA]2 (B2 G2) | [Dd]2 [Fd]2 [Ec]2 [DB]2 | [EB]2 [EA]2 [DG]4 | %4
 [FA]2 [FA]2 [FB]2 [EG]2 | [EF]2 [^DF]2 [B,E]4 | [Ge]2 [Ge]2 [Fd]2 [Dd]2 | [G^c]2 c2 [^DB]4 | %8
 [EB]2 [Ed]2 c2 [GB]2 | [GA]2 [FA]2 [DG]4 | [FA]2 [EA]2 [^DB]2 [EG]2 | [EF]2 [^DF]2 [B,E]4 |] %12
V:2
 x2 E2 x4 | x4 D4 | x8 | x8 | x8 | x8 | x8 | x2 (FE) x4 | x4 (EF) x2 | x8 | x8 | x8 |] %12
V:3
 [E,G,]2 (G,A,) [E,B,]2 [B,,B,]2 | [C,A,]2 [D,F,]2 (G,2 B,2) | %2
 [F,A,]2 [D,A,]2 ([E,G,][F,A,]) [G,B,]2 | [C,C]2 [D,C]2 [G,B,]4 | [D,D]2 (DC) [G,,B,]2 [G,,B,]2 | %5
 [A,,C]2 (B,A,) [E,G,]4 | [E,B,]2 (B,^A,) [D,B,]2 [G,B,]2 | [E,B,]2 [F,^A,]2 [B,,B,]4 | %8
 [E,^G,]2 [^G,,B,]2 [A,,A,]2 [B,,D]2 | [C,C]2 (DC) [G,B,]4 | D,2 [C,E,]2 [B,,F,]2 [E,G,]2 | %11
 [A,,C]2 (B,A,) [E,G,]4 |] %12
V:4
 x2 E,2 x4 | x4 G,,4 | x8 | x8 | x2 D,2 x4 | x2 B,,2 x4 | x2 ^C,2 x4 | x8 | x8 | x2 C,2 x4 | %10
 D,2 x6 | x2 B,,2 x4 |] %12

